X:1
T:Castle. Car(L).42, The
T:Castle. Car(L).42, The
T:from an old ms dated 1861
C:from an old ms dated 1861
L:1/8
M:2/4
K:A
V:1 treble 
V:1
 e/d/ | c/e/e/c/ B/d/c/B/ | cAAf/e/ | dd/c/ BB/A/ | G/A/B/G/ Ea/g/ | c/e/e/c/ B/d/c/B/ | %6
 cA A a/g/ | ff/e/ ^d/e/f/d/ | eE E || f |{b} ageg |{e} dBGE | Acea | g/a/b/g/ e/f/g/e/ |{b} aece | %15
{e} dBGE | A/B/c/A/ e/f/g/e/ | aa a || e/^d/ | eA aA | b/a/g/f/ e/d/c/B/ | d/e/d/c/ B/f/d/G/ | %22
 A/B/c/d/ e/f/g/a/!D.C.! |] %23

